src/assets/outline/Headphones.svg

<?xml version="1.0" encoding="UTF-8"?>
<svg width="24" height="24" viewBox="0 0 24 24" xmlns="http://www.w3.org/2000/svg">
 <path d="m8.5 12.75c-0.41 0-0.75-0.34-0.75-0.75v-4.7801c0-0.41 0.34-0.75 0.75-0.75s0.75 0.34 0.75 0.75v4.7801c0 0.41-0.34 0.75-0.75 0.75z"/>
 <path d="m8.5 22.75c-0.41 0-0.75-0.34-0.75-0.75v-3c0-0.41 0.34-0.75 0.75-0.75s0.75 0.34 0.75 0.75v3c0 0.41-0.34 0.75-0.75 0.75z"/>
 <path d="m15.5 22.75c-0.41 0-0.75-0.34-0.75-0.75v-14.78c0-0.41 0.34-0.75 0.75-0.75s0.75 0.34 0.75 0.75v14.78c0 0.41-0.34 0.75-0.75 0.75z"/>
 <path d="m8.2999 7.8505h-2.25c-0.29 0-0.53998-0.15998-0.66998-0.41998s-0.1-0.55998 0.07-0.78998c0.19-0.25 0.29999-0.57002 0.29999-0.90002v-0.89996c0-0.32-0.10999-0.64003-0.29999-0.90003-0.17-0.23-0.2-0.52998-0.07-0.78998 0.13-0.25 0.38998-0.42004 0.66998-0.42004h2.25c1.41 0 2.55 1.14 2.55 2.55 0 0.69-0.27 1.33-0.76 1.81-0.45998 0.48999-1.1 0.75994-1.79 0.75994zm-1.11-1.5h1.11c0.28 0 0.54001-0.10998 0.73001-0.29998 0.21-0.2 0.32001-0.46 0.32001-0.75 0-0.58-0.47002-1.05-1.05-1.05h-1.11c0.04 0.2 0.06 0.39997 0.06 0.59997v0.90003c0 0.2-0.02 0.39997-0.06 0.59997z"/>
 <path d="m4.2498 8.7496c-0.66 0-1.54-0.21003-2.46-1.03-0.31-0.28-0.52999-0.77997-0.52999-1.22v-2.34c0-0.39 0.18-0.85 0.44-1.12 0.93-0.97 1.89-1.18 2.53-1.19h0.03c0.79 0 1.57 0.32 2.12 0.88 0.1 0.1 0.20001 0.22003 0.29001 0.34003 0.37 0.49 0.57999 1.13 0.57999 1.78v0.90002c0 0.65-0.21001 1.29-0.60001 1.8-0.5 0.67-1.27 1.1-2.1 1.18-0.09 0.01-0.19998 0.02002-0.29998 0.02002zm0-5.4h-0.01999c-0.51 0.01-1.01 0.26004-1.46 0.73004 0 0-0.01998 0.06998-0.01998 0.09998v2.33c0 0.02 0.02998 0.09 0.04998 0.12 0.51 0.45 1.07 0.67999 1.6 0.61999 0.42-0.04 0.79002-0.25002 1.05-0.59002 0.19-0.25 0.29999-0.56997 0.29999-0.89997v-0.90002c0-0.32-0.10999-0.63996-0.29999-0.89996-0.05-0.08-0.10002-0.12005-0.14002-0.17005-0.28-0.28-0.65999-0.44-1.06-0.44z"/>
 <path d="m17.95 7.85h-2.25c-0.69 0-1.33-0.26995-1.81-0.75995-0.47-0.46-0.74-1.1-0.74-1.79 0-1.41 1.14-2.55 2.55-2.55h2.25c0.28 0 0.54 0.15998 0.67 0.41998 0.13 0.25 0.1 0.56004-0.07 0.79004-0.19 0.25-0.3 0.56997-0.3 0.89997v0.90002c0 0.33 0.11 0.63996 0.3 0.89996 0.17 0.23 0.2 0.53004 0.07 0.79004-0.12 0.24-0.38 0.39997-0.67 0.39997zm-2.25-3.6c-0.58 0-1.05 0.46999-1.05 1.05 0 0.28 0.11 0.54004 0.3 0.73004 0.2 0.21 0.46 0.31995 0.75 0.31995h1.11c-0.04-0.2-0.06-0.39998-0.06-0.59998v-0.90002c0-0.2 0.02-0.39998 0.06-0.59998h-1.11z"/>
 <path d="m19.75 8.7504c-0.11 0-0.21-0.01001-0.31-0.01001-0.83-0.08-1.59-0.51-2.1-1.18-0.39-0.51-0.6-1.15-0.6-1.8v-0.90003c0-0.65 0.21-1.29 0.6-1.8 0.07-0.1 0.17-0.22 0.27-0.32 0.56-0.56 1.3301-0.88001 2.1201-0.88001h0.03c0.64 0.01 1.6 0.22 2.53 1.19 0.26 0.27 0.44 0.73 0.44 1.12v2.34c0 0.44-0.22 0.93996-0.53 1.21-0.91 0.82-1.7901 1.03-2.4501 1.03zm0-5.4c-0.4 0-0.79 0.16-1.06 0.44-0.04 0.04-0.0799 0.09002-0.1199 0.14002-0.21 0.28-0.3201 0.59998-0.3201 0.91998v0.90003c0 0.33 0.11 0.64002 0.3 0.90002 0.26 0.34 0.6301 0.54998 1.0501 0.59998 0.53 0.06 1.09-0.17002 1.63-0.64002 0 0 0.02-0.06997 0.03-0.09997v-2.33c0-0.02-0.0301-0.08999-0.0401-0.10999-0.43-0.45-0.93-0.70001-1.44-0.70001-0.02-0.02-0.02-0.02002-0.03-0.02002z"/>
 <path d="m8.5 19.75c-1.24 0-2.25-1.01-2.25-2.25v-4c0-1.24 1.01-2.25 2.25-2.25s2.25 1.01 2.25 2.25v4c0 1.24-1.01 2.25-2.25 2.25zm0-7c-0.41 0-0.75 0.34-0.75 0.75v4c0 0.41 0.34 0.75 0.75 0.75s0.75-0.34 0.75-0.75v-4c0-0.41-0.34-0.75-0.75-0.75z"/>
</svg>

<svg width="24" height="24" viewBox="0 0 24 24"  xmlns="http://www.w3.org/2000/svg">
<path d="M8.5 12.7498C8.09 12.7498 7.75 12.4098 7.75 11.9998V7.21973C7.75 6.80973 8.09 6.46973 8.5 6.46973C8.91 6.46973 9.25 6.80973 9.25 7.21973V11.9998C9.25 12.4098 8.91 12.7498 8.5 12.7498Z" />
<path d="M8.5 22.75C8.09 22.75 7.75 22.41 7.75 22V19C7.75 18.59 8.09 18.25 8.5 18.25C8.91 18.25 9.25 18.59 9.25 19V22C9.25 22.41 8.91 22.75 8.5 22.75Z" />
<path d="M15.5 22.7498C15.09 22.7498 14.75 22.4098 14.75 21.9998V7.21973C14.75 6.80973 15.09 6.46973 15.5 6.46973C15.91 6.46973 16.25 6.80973 16.25 7.21973V21.9998C16.25 22.4098 15.91 22.7498 15.5 22.7498Z" />
<path d="M8.29991 7.85046H6.04991C5.75991 7.85046 5.50993 7.69048 5.37993 7.43048C5.24993 7.17048 5.27993 6.8705 5.44993 6.6405C5.63993 6.3905 5.74992 6.07048 5.74992 5.74048V4.84052C5.74992 4.52052 5.63993 4.20049 5.44993 3.94049C5.27993 3.71049 5.24993 3.41051 5.37993 3.15051C5.50993 2.90051 5.76991 2.73047 6.04991 2.73047H8.29991C9.70991 2.73047 10.8499 3.87052 10.8499 5.28052C10.8499 5.97052 10.5799 6.61052 10.0899 7.09052C9.62992 7.58051 8.98991 7.85046 8.29991 7.85046ZM7.18992 6.35046H8.29991C8.57991 6.35046 8.83992 6.24048 9.02992 6.05048C9.23992 5.85048 9.34993 5.59048 9.34993 5.30048C9.34993 4.72048 8.87991 4.25049 8.29991 4.25049H7.18992C7.22992 4.45049 7.24992 4.65046 7.24992 4.85046V5.75049C7.24992 5.95049 7.22992 6.15046 7.18992 6.35046Z" />
<path d="M4.24976 8.74963C3.58976 8.74963 2.70976 8.5396 1.78976 7.7196C1.47976 7.4396 1.25977 6.93963 1.25977 6.49963V4.15961C1.25977 3.76961 1.43977 3.30961 1.69977 3.03961C2.62977 2.06961 3.58977 1.85961 4.22977 1.84961C4.23977 1.84961 4.24977 1.84961 4.25977 1.84961C5.04977 1.84961 5.82976 2.16961 6.37976 2.72961C6.47976 2.82961 6.57977 2.94964 6.66977 3.06964C7.03977 3.55964 7.24976 4.19961 7.24976 4.84961V5.74963C7.24976 6.39963 7.03975 7.03962 6.64975 7.54962C6.14975 8.21962 5.37974 8.64961 4.54974 8.72961C4.45974 8.73961 4.34976 8.74963 4.24976 8.74963ZM4.24976 3.34961C4.23976 3.34961 4.23977 3.34961 4.22977 3.34961C3.71977 3.35961 3.21974 3.60965 2.76974 4.07965C2.76974 4.07965 2.74976 4.14963 2.74976 4.17963V6.50964C2.74976 6.52964 2.77974 6.59964 2.79974 6.62964C3.30974 7.07964 3.86975 7.30963 4.39975 7.24963C4.81975 7.20963 5.18977 6.99961 5.44977 6.65961C5.63977 6.40961 5.74976 6.08964 5.74976 5.75964V4.85962C5.74976 4.53962 5.63977 4.21966 5.44977 3.95966C5.39977 3.87966 5.34975 3.83961 5.30975 3.78961C5.02975 3.50961 4.64976 3.34961 4.24976 3.34961Z" />
<path d="M17.9499 7.84998H15.6999C15.0099 7.84998 14.3699 7.58003 13.8899 7.09003C13.4199 6.63003 13.1499 5.98999 13.1499 5.29999C13.1499 3.88999 14.2899 2.75 15.6999 2.75H17.9499C18.2299 2.75 18.4899 2.90998 18.6199 3.16998C18.7499 3.41998 18.7199 3.73002 18.5499 3.96002C18.3599 4.21002 18.2499 4.52999 18.2499 4.85999V5.76001C18.2499 6.09001 18.3599 6.39997 18.5499 6.65997C18.7199 6.88997 18.7499 7.19001 18.6199 7.45001C18.4999 7.69001 18.2399 7.84998 17.9499 7.84998ZM15.6999 4.25C15.1199 4.25 14.6499 4.71999 14.6499 5.29999C14.6499 5.57999 14.7599 5.84003 14.9499 6.03003C15.1499 6.24003 15.4099 6.34998 15.6999 6.34998H16.8099C16.7699 6.14998 16.7499 5.95 16.7499 5.75V4.84998C16.7499 4.64998 16.7699 4.45 16.8099 4.25H15.6999Z" />
<path d="M19.7502 8.75037C19.6402 8.75037 19.5402 8.74036 19.4402 8.74036C18.6102 8.66036 17.8502 8.23036 17.3402 7.56036C16.9502 7.05036 16.7402 6.41038 16.7402 5.76038V4.86035C16.7402 4.21035 16.9502 3.57036 17.3402 3.06036C17.4102 2.96036 17.5102 2.84036 17.6102 2.74036C18.1702 2.18036 18.9403 1.86035 19.7303 1.86035C19.7403 1.86035 19.7503 1.86035 19.7603 1.86035C20.4003 1.87035 21.3603 2.08035 22.2903 3.05035C22.5503 3.32035 22.7303 3.78035 22.7303 4.17035V6.51038C22.7303 6.95038 22.5103 7.45034 22.2003 7.72034C21.2903 8.54034 20.4102 8.75037 19.7502 8.75037ZM19.7502 3.35034C19.3502 3.35034 18.9602 3.51034 18.6902 3.79034C18.6502 3.83034 18.6103 3.88036 18.5703 3.93036C18.3603 4.21036 18.2502 4.53034 18.2502 4.85034V5.75037C18.2502 6.08037 18.3602 6.39039 18.5502 6.65039C18.8102 6.99039 19.1803 7.20037 19.6003 7.25037C20.1303 7.31037 20.6903 7.08035 21.2303 6.61035C21.2303 6.61035 21.2503 6.54038 21.2603 6.51038V4.18036C21.2603 4.16036 21.2302 4.09037 21.2202 4.07037C20.7902 3.62037 20.2902 3.37036 19.7802 3.37036C19.7602 3.35036 19.7602 3.35034 19.7502 3.35034Z" />
<path d="M8.5 19.75C7.26 19.75 6.25 18.74 6.25 17.5V13.5C6.25 12.26 7.26 11.25 8.5 11.25C9.74 11.25 10.75 12.26 10.75 13.5V17.5C10.75 18.74 9.74 19.75 8.5 19.75ZM8.5 12.75C8.09 12.75 7.75 13.09 7.75 13.5V17.5C7.75 17.91 8.09 18.25 8.5 18.25C8.91 18.25 9.25 17.91 9.25 17.5V13.5C9.25 13.09 8.91 12.75 8.5 12.75Z" />
</svg>
